; generated by PrusaSlicer 2.0.0+win64 on 2020-02-18 at 13:05:04

; 

; external perimeters extrusion width = 0.60mm
; perimeters extrusion width = 0.50mm
; infill extrusion width = 0.50mm
; solid infill extrusion width = 0.50mm
; top infill extrusion width = 0.45mm
; first layer extrusion width = 0.42mm

M73 P0 R114
M73 Q0 S114
M201 X1000 Y1000 Z1000 E5000 ; sets maximum accelerations, mm/sec^2
M203 X200 Y200 Z12 E120 ; sets maximum feedrates, mm/sec
M204 P1250 R1250 T1250 ; sets acceleration (P, T) and retract acceleration (R), mm/sec^2
M205 X8.00 Y8.00 Z0.40 E1.50 ; sets the jerk limits, mm/sec
M205 S0 T0 ; sets the minimum extruding and travel feed rate, mm/sec
M107
M115 U3.8.1 ; tell printer latest fw version
G90 ; use absolute coordinates
M83 ; extruder relative mode
M104 S215 ; set extruder temp
M140 S60 ; set bed temp
M190 S60 ; wait for bed temp
M109 S215 ; wait for extruder temp
G28 W ; home all without mesh bed level
G80 ; mesh bed leveling
G1 Y-3.0 F1000.0 ; go outside print area
G92 E0.0
G1 X60.0 E9.0 F1000.0 ; intro line
M73 Q0 S114
M73 P0 R114
G1 X100.0 E12.5 F1000.0 ; intro line
G92 E0.0
M221 S95
M900 K30 ; Filament gcode
G21 ; set units to millimeters
G90 ; use absolute coordinates
M83 ; use relative distances for extrusion
;BEFORE_LAYER_CHANGE
G92 E0.0
;0.2


G1 E-0.80000 F2100.00000
G1 Z0.600 F10800.000
;AFTER_LAYER_CHANGE
;0.2
G1 X92.709 Y77.850
G1 Z0.200
G1 E0.80000 F2100.00000
M204 S1000
G1 F1200



G1 Z200
G1 Z300
G28
G1 Z400
G1 Z350
G1 Z300
G1 Z250
G1 Z200
G1 Z150
G1 Z100
G1 X94.851 Y75.489 B1
G1 X96.018 Y74.343 B2
G1 X98.547 Y72.136 B3
G1 X101.103 Y70.233 B4
G1 X102.503 Y69.310 B5
G1 X105.376 Y67.654 B6
G1 X108.251 Y66.279 B7
G1 X109.803 Y65.644 B8
G1 X112.941 Y64.572 B9
G1 X116.027 Y63.777 B10
G1 X117.672 Y63.453 B11
G1 X120.958 Y63.006 B12
G1 X124.139 Y62.821 B13
G1 X125.779 Y62.819 B14
G1 X129.126 Y63.014 B15
G1 X132.284 Y63.445 B16
G1 X133.929 Y63.767 B17
G1 X137.140 Y64.596 B18
G1 X140.156 Y65.628 B19
G1 X141.708 Y66.261 B20
G1 X144.699 Y67.693 B21
G1 X147.459 Y69.287 B22
G1 X148.863 Y70.209 B23
G1 X150.227 Y71.185 B24
G1 X152.708 Y73.186 B25
G1 X155.121 Y75.460 B26
G1 X156.271 Y76.681 B27
G1 X158.319 Y79.122 B28
G1 X160.249 Y81.818 B29
G1 X161.142 Y83.238 B30
G1 X162.682 Y86.028 B31
G1 X164.055 Y89.046 B32
G1 X164.658 Y90.611 B33
G1 X165.631 Y93.645 B32
G1 X166.398 Y96.871 B31
G1 X166.688 Y98.523 B30
G1 X167.058 Y101.688 B29 A0.2
G1 X167.188 Y105.042 B28 A0.2
G1 X167.065 Y108.227 B27 A0.2
G1 X166.903 Y109.899 B26 A0.2
G1 X166.675 Y111.561 B25
G1 X166.061 Y114.688 B24
G1 X165.162 Y117.917 B23
G1 X164.629 Y119.469 B22
G1 X163.424 Y122.419 B21
G1 X161.918 Y125.419 B20
G1 X160.271 Y128.147 B19
G1 X159.324 Y129.530 B18
G1 X157.291 Y132.150 B17 
G1 X155.149 Y134.511 B16
G1 X153.982 Y135.657 B15
G1 X151.453 Y137.864 B14
G1 X148.897 Y139.767 B13
G1 X147.497 Y140.690 B12
G1 X144.624 Y142.346 B10
G1 X141.749 Y143.721 B9
G1 X140.197 Y144.356 B8
G1 X137.059 Y145.428 B7
G1 X133.973 Y146.223 B6
G1 X132.325 Y146.548 B5
G1 X129.042 Y146.994 B4
G1 X125.861 Y147.179 B3
G1 X124.184 Y147.181 B2
G1 X120.873 Y146.986 B1
G1 X117.716 Y146.555 B2
G1 X116.067 Y146.232 B3
G1 X114.435 Y145.844 B4
G1 X111.382 Y144.930 B5
G1 X108.289 Y143.738 B6
G1 X106.762 Y143.042 B7
G1 X103.943 Y141.557 B8
G1 X101.137 Y139.791 B9
G1 X99.773 Y138.815 B10
G1 X97.292 Y136.814 B11
G1 X94.879 Y134.540 B12
G1 X93.729 Y133.319 B13
G1 X91.681 Y130.878 B14
G1 X89.751 Y128.182 B15
G1 X88.858 Y126.762 B16
G1 X87.318 Y123.972 B17
G1 X85.945 Y120.954 B18
G1 X85.342 Y119.389 B17
G1 X84.369 Y116.355 B16
G1 X83.602 Y113.129 B15
G1 X83.312 Y111.477 B14
G1 X82.942 Y108.312 B13
G1 X82.812 Y104.958 B12
G1 X82.935 Y101.773 B11
G1 X83.092 Y100.144 B10
G1 X83.603 Y96.868 B9
G1 X83.959 Y95.229 B8
G1 X84.813 Y92.159 B7
G1 X85.968 Y88.990 B6
G1 X87.280 Y86.104 B5
G1 X88.062 Y84.617 B4
G1 X88.902 Y83.165 B3
G1 X90.653 Y80.502 B2
G1 X92.673 Y77.897 B1
